X: 9
T: Tam Lin
R: reel
M: 4/4
L: 1/8
K: Amin
EA~A2 EAcA|F2AF cFAF|G2BG dGBG|cBAG AGED|EA~A2 EAcA|F2AF cFAF|G2BG dGBG|cBAG A3:||ae~e2 ceAE|ae~e2 ceAE|gd~d2 gd~d2|gd~d2 gabg|ae~e2 ceAe|ae~e2 cBAG|F3G ~A3B|cABG A3:||


Tune 248	Setting 21721

